16x16/actions/akonadi-phone-home.svg

<svg viewBox="0 0 16 16" xmlns="http://www.w3.org/2000/svg"><path d="m8 2.002-6 5.998v6h12v-6h-.002l-.998-1v-3h-3zm0 1.414 5 5v4.584h-4v-3h-2v3h-4v-4.584z" fill="#8b9cbe"/></svg>

<svg xmlns="http://www.w3.org/2000/svg" viewBox="0 0 16 16"><path style="fill:currentColor;fill-opacity:1;stroke:none;color:#8b9cbe" d="M8 2.002 2 8v6h12V8h-.002L13 7V4h-3L8 2.002zm0 1.414 5 5V13H9v-3H7v3H3V8.416l5-5z"/></svg>
